src/assets/images/refresh-groningen.svg

<svg height="82" viewBox="0 0 86 82" width="86" xmlns="http://www.w3.org/2000/svg"><path d="m77.1069375 7.29775-6.8799375 6.885c-.3391875-.4100625-.718875-.840375-1.144125-1.2706875-7.55325-7.522875-17.7845625-11.9120625-28.582875-11.9120625-22.3306875 0-40.5 18.1693125-40.5 40.5s18.1693125 40.5 40.5 40.5c18.073125 0 33.6706875-11.6285625 38.81925-28.9321875.799875-2.6780625-.729-5.497875-3.4070625-6.29775-2.673-.799875-5.497875.7340625-6.2926875 3.412125-3.86775 12.970125-15.562125 21.6928125-29.1195 21.6928125-16.7518125 0-30.375-13.6231875-30.375-30.375s13.6231875-30.375 30.375-30.375c8.1 0 15.7696875 3.290625 21.44475 8.9353125l1.03275 1.3719375-11.1121875 11.1121875c-2.1515625 2.1515625-1.4326875 3.8930625 1.609875 3.8930625h24.7708125c1.5238125 0 2.754-1.2301875 2.754-2.754v-24.7708125c0-3.0425625-1.7415-3.7614375-3.8930625-1.6149375z" fill="#f5f4f5" fill-rule="evenodd" transform="matrix(.98768834 -.15643447 -.15643447 -.98768834 6.990653 88.824662)"/></svg>

<?xml version="1.0" encoding="UTF-8"?>
<svg width="86px" height="82px" viewBox="0 0 86 82" version="1.1" xmlns="http://www.w3.org/2000/svg" xmlns:xlink="http://www.w3.org/1999/xlink">
    <!-- Generator: Sketch 49.1 (51147) - http://www.bohemiancoding.com/sketch -->
    <title>Refresh_1-path</title>
    <desc>Created with Sketch.</desc>
    <defs></defs>
    <g id="Page-1" stroke="none" stroke-width="1" fill="none" fill-rule="evenodd">
        <path d="M77.1069375,7.29775 L70.227,14.18275 C69.8878125,13.7726875 69.508125,13.342375 69.082875,12.9120625 C61.529625,5.3891875 51.2983125,1 40.5,1 C18.1693125,1 0,19.1693125 0,41.5 C0,63.8306875 18.1693125,82 40.5,82 C58.573125,82 74.1706875,70.3714375 79.31925,53.0678125 C80.119125,50.38975 78.59025,47.5699375 75.9121875,46.7700625 C73.2391875,45.9701875 70.4143125,47.504125 69.6195,50.1821875 C65.75175,63.1523125 54.057375,71.875 40.5,71.875 C23.7481875,71.875 10.125,58.2518125 10.125,41.5 C10.125,24.7481875 23.7481875,11.125 40.5,11.125 C48.6,11.125 56.2696875,14.415625 61.94475,20.0603125 L62.9775,21.43225 L51.8653125,32.5444375 C49.71375,34.696 50.432625,36.4375 53.4751875,36.4375 L78.246,36.4375 C79.7698125,36.4375 81,35.2073125 81,33.6835 L81,8.9126875 C81,5.870125 79.2585,5.15125 77.1069375,7.29775 L77.1069375,7.29775 Z" id="Refresh_1-path" fill="#f5f4f5" transform="translate(40.500000, 41.500000) scale(-1, 1) rotate(-171.000000) translate(-40.500000, -41.500000) "></path>
    </g>
</svg>
